src/assets/selectIcons/varie_7.svg

<svg xmlns="http://www.w3.org/2000/svg" viewBox="0 0 512 512"><path d="M0 0h512v512H0z"/><path fill="#fff" d="M363.783 23.545c-9.782.057-16.583 3.047-20.744 10.22-17.51 30.18-38.432 61.645-48.552 97.245 2.836.83 5.635 1.787 8.373 2.853 7.353 2.863 14.38 6.482 20.542 10.858 27.534-25.542 58.165-45.21 87.45-65.462 11.356-7.854 12.273-13.584 10.183-20.83-2.09-7.246-9.868-16.365-20.525-23.176-10.658-6.81-23.87-11.33-34.73-11.68-.68-.022-1.345-.03-1.997-.027zm-68.998.746c-10.02-.182-17.792 6.393-23.924 20.24-8.94 20.194-10.212 53.436-1.446 83.185.156-.008.31-.023.467-.03 1.99-.087 3.99-.072 6 .03 9.436-34.822 27.966-64.72 44.013-91.528-10.31-8.496-18.874-11.782-25.108-11.896zM197.5 82.5L187 97.97c14.82 10.04 29.056 19.725 39.813 31.374 3.916 4.24 7.37 8.722 10.31 13.607 3.77-4.73 8.51-8.378 13.69-10.792.407-.188.82-.355 1.228-.53-3.423-5.44-7.304-10.418-11.51-14.972C227.765 102.83 212.29 92.52 197.5 82.5zm223.77 12.27c-29.255 20.228-58.575 39.152-84.348 62.78.438.576.848 1.168 1.258 1.76 20.68-6.75 49.486-15.333 73.916-19.41 11.484-1.916 15.66-6.552 17.574-13.228 1.914-6.676.447-16.71-5.316-26.983-.924-1.647-1.96-3.29-3.083-4.92zm-223.938 47.87c-14.95.2-29.732 4.3-43.957 12.766l9.563 16.03c21.657-12.89 42.626-14.133 65.232-4.563.52-5.592 1.765-10.66 3.728-15.21.35-.806.73-1.586 1.123-2.354-11.87-4.52-23.83-6.827-35.688-6.67zm75.8 3.934c-5.578-.083-10.597.742-14.427 2.526-4.377 2.038-7.466 4.914-9.648 9.97-.884 2.047-1.572 4.54-1.985 7.494.456-.007.91-.03 1.365-.033 16.053-.084 32.587 2.77 49.313 9.19 7.714 2.96 15.062 7.453 22.047 13.184 3.217-2.445 4.99-4.72 5.773-6.535 1.21-2.798 1.095-5.184-.634-8.82-3.46-7.275-15.207-16.955-28.856-22.27-6.824-2.658-13.98-4.224-20.523-4.614-.818-.05-1.627-.08-2.424-.092zm-24.757 38.457c-22.982.075-44.722 7.386-65 19.782-32.445 19.835-60.565 53.124-80.344 90.032-19.777 36.908-31.133 77.41-31.186 110.53-.053 33.06 10.26 57.27 32.812 67.782.043.02.082.043.125.063h.032c24.872 11.51 65.616 19.337 108.407 20.092 42.79.756 87.79-5.457 121.874-20.187 21.96-9.49 34.545-28.452 40.5-54.156 5.954-25.705 4.518-57.657-2.375-89.314-6.894-31.657-19.2-63.06-34.095-87.875-14.894-24.814-32.614-42.664-48.063-48.593-14.664-5.627-28.898-8.2-42.687-8.156z"/></svg>

<?xml version="1.0" encoding="UTF-8" standalone="no"?>
<!DOCTYPE svg PUBLIC "-//W3C//DTD SVG 1.1//EN" "http://www.w3.org/Graphics/SVG/1.1/DTD/svg11.dtd">
<svg width="100%" height="100%" viewBox="0 0 512 512" version="1.1" xmlns="http://www.w3.org/2000/svg" xmlns:xlink="http://www.w3.org/1999/xlink" xml:space="preserve" xmlns:serif="http://www.serif.com/" style="fill-rule:evenodd;clip-rule:evenodd;stroke-linejoin:round;stroke-miterlimit:2;">
    <rect x="0" y="0" width="512" height="512" style="fill-rule:nonzero;"/>
    <path d="M363.783,23.545C354.001,23.602 347.2,26.592 343.039,33.765C325.529,63.945 304.607,95.41 294.487,131.01C297.323,131.84 300.122,132.797 302.86,133.863C310.213,136.726 317.24,140.345 323.402,144.721C350.936,119.179 381.567,99.511 410.852,79.259C422.208,71.405 423.125,65.675 421.035,58.429C418.945,51.183 411.167,42.064 400.51,35.253C389.852,28.443 376.64,23.923 365.78,23.573C365.1,23.551 364.435,23.543 363.783,23.546L363.783,23.545ZM294.785,24.291C284.765,24.109 276.993,30.684 270.861,44.531C261.921,64.725 260.649,97.967 269.415,127.716C269.571,127.708 269.725,127.693 269.882,127.686C271.872,127.599 273.872,127.614 275.882,127.716C285.318,92.894 303.848,62.996 319.895,36.188C309.585,27.692 301.021,24.406 294.787,24.292L294.785,24.291ZM421.27,94.77C392.015,114.998 362.695,133.922 336.922,157.55C337.36,158.126 337.77,158.718 338.18,159.31C358.86,152.56 387.666,143.977 412.096,139.9C423.58,137.984 427.756,133.348 429.67,126.672C431.584,119.996 430.117,109.962 424.354,99.689C423.43,98.042 422.394,96.399 421.271,94.769L421.27,94.77ZM248.375,185.031C225.393,185.106 203.653,192.417 183.375,204.813C150.93,224.648 122.81,257.937 103.031,294.845C83.254,331.753 71.898,372.255 71.845,405.375C71.792,438.435 82.105,462.645 104.657,473.157C104.7,473.177 104.739,473.2 104.782,473.22L104.814,473.22C129.686,484.73 170.43,492.557 213.221,493.312C256.011,494.068 301.011,487.855 335.095,473.125C357.055,463.635 369.64,444.673 375.595,418.969C381.549,393.264 380.113,361.312 373.22,329.655C366.326,297.998 354.02,266.595 339.125,241.78C324.231,216.966 306.511,199.116 291.062,193.187C276.398,187.56 262.164,184.987 248.375,185.031Z" style="fill:rgb(196,161,84);fill-rule:nonzero;"/>
    <path d="M197.5,82.5C212.29,92.52 227.765,102.83 240.531,116.657C244.737,121.211 248.618,126.189 252.041,131.629C251.633,131.804 251.22,131.971 250.813,132.159C245.633,134.573 240.893,138.221 237.123,142.951C234.183,138.066 230.729,133.584 226.813,129.344C216.056,117.695 201.82,108.01 187,97.97L197.5,82.5ZM197.332,142.64C209.19,142.482 221.151,144.789 233.021,149.309C232.628,150.077 232.248,150.857 231.898,151.663C229.935,156.213 228.69,161.281 228.17,166.873C205.564,157.303 184.595,158.546 162.938,171.436L153.375,155.406C167.6,146.94 182.383,142.839 197.332,142.64ZM273.133,146.574C273.93,146.586 274.739,146.616 275.557,146.666C282.1,147.056 289.256,148.622 296.08,151.28C309.729,156.595 321.476,166.275 324.936,173.55C326.665,177.186 326.78,179.572 325.57,182.37C324.787,184.185 323.014,186.46 319.797,188.905C312.812,183.174 305.464,178.681 297.75,175.721C281.024,169.301 264.49,166.447 248.437,166.531C247.982,166.534 247.528,166.557 247.072,166.564C247.485,163.61 248.173,161.117 249.057,159.07C251.239,154.014 254.328,151.138 258.705,149.1C262.535,147.316 267.555,146.491 273.133,146.574Z" style="fill:rgb(121,255,0);"/>
</svg>
